icon/pk/cake-three.svg

<svg viewBox="0 0 48 48" fill="none" xmlns="http://www.w3.org/2000/svg" height="1em" width="1em">
  <path d="M39 34V16C39 14.8954 38.1046 14 37 14H34.3125H26.3438H11C9.89543 14 9 14.8954 9 16V34C9 35.1046 9.89543 36 11 36H37C38.1046 36 39 35.1046 39 34Z" fill="#2F88FF" stroke="black" stroke-width="4" stroke-linecap="round" stroke-linejoin="round"/>
  <path d="M6 36H42" stroke="black" stroke-width="4" stroke-linecap="round" stroke-linejoin="round"/>
  <path d="M6 42H42" stroke="black" stroke-width="4" stroke-linecap="round" stroke-linejoin="round"/>
  <path d="M9 21H15V26H21V21H27V29H33V21H39" stroke="white" stroke-width="4" stroke-linecap="round" stroke-linejoin="round"/>
  <path d="M9 23V19" stroke="black" stroke-width="4" stroke-linecap="round" stroke-linejoin="round"/>
  <path d="M39 23V19" stroke="black" stroke-width="4" stroke-linecap="round" stroke-linejoin="round"/>
  <path d="M33 14V8" stroke="black" stroke-width="4" stroke-linecap="round" stroke-linejoin="round"/>
  <path d="M24 14L24 4" stroke="black" stroke-width="4" stroke-linecap="round" stroke-linejoin="round"/>
  <path d="M15 14L15 8" stroke="black" stroke-width="4" stroke-linecap="round" stroke-linejoin="round"/>
</svg>

<svg width="48" height="48" fill="none" xmlns="http://www.w3.org/2000/svg"><path d="M39 34V16a2 2 0 0 0-2-2H11a2 2 0 0 0-2 2v18a2 2 0 0 0 2 2h26a2 2 0 0 0 2-2Z" fill="#2F88FF" stroke="#000" stroke-width="4" stroke-linecap="round" stroke-linejoin="round"/><path d="M6 36h36M6 42h36" stroke="#000" stroke-width="4" stroke-linecap="round" stroke-linejoin="round"/><path d="M9 21h6v5h6v-5h6v8h6v-8h6" stroke="#fff" stroke-width="4" stroke-linecap="round" stroke-linejoin="round"/><path d="M9 23v-4M39 23v-4M33 14V8M24 14V4M15 14V8" stroke="#000" stroke-width="4" stroke-linecap="round" stroke-linejoin="round"/></svg>
